school/img/country/KR.svg

<svg width="13" height="12" viewBox="0 0 13 12" fill="none" xmlns="http://www.w3.org/2000/svg">
<rect x="0.25" y="0.25" width="12.5" height="11.5" rx="1.75" fill="white" stroke="#F5F5F5" stroke-width="0.5"/>
<mask id="mask0" mask-type="alpha" maskUnits="userSpaceOnUse" x="0" y="0" width="13" height="12">
<rect x="0.25" y="0.25" width="12.5" height="11.5" rx="1.75" fill="white" stroke="white" stroke-width="0.5"/>
</mask>
<g mask="url(#mask0)">
<path fill-rule="evenodd" clip-rule="evenodd" d="M6.49992 8.79998C7.69653 8.79998 8.66658 7.54638 8.66658 5.99998C8.66658 4.45358 7.69653 3.19998 6.49992 3.19998C5.3033 3.19998 4.33325 4.45358 4.33325 5.99998C4.33325 7.54638 5.3033 8.79998 6.49992 8.79998Z" fill="#E01B41"/>
<mask id="mask1" mask-type="alpha" maskUnits="userSpaceOnUse" x="4" y="3" width="5" height="6">
<path fill-rule="evenodd" clip-rule="evenodd" d="M6.49992 8.79998C7.69653 8.79998 8.66658 7.54638 8.66658 5.99998C8.66658 4.45358 7.69653 3.19998 6.49992 3.19998C5.3033 3.19998 4.33325 4.45358 4.33325 5.99998C4.33325 7.54638 5.3033 8.79998 6.49992 8.79998Z" fill="white"/>
</mask>
<g mask="url(#mask1)">
<path fill-rule="evenodd" clip-rule="evenodd" d="M4.33324 6.39997C4.95229 7.14997 5.88086 7.59997 6.4999 6.39997C7.11895 5.19997 8.35705 5.19997 8.66657 6.39997C8.97609 7.59997 8.66657 8.79997 8.66657 8.79997H4.33324C4.33324 8.79997 3.71419 5.64997 4.33324 6.39997Z" fill="#0E4B9C"/>
</g>
<path opacity="0.75" fill-rule="evenodd" clip-rule="evenodd" d="M2.80753 2.2651C2.88262 2.09702 3.064 2.05067 3.21155 2.16076C3.3591 2.27085 3.41874 2.49701 3.34364 2.6651L2.68701 4.13488C2.61191 4.30296 2.43053 4.34931 2.28298 4.23922C2.13543 4.12913 2.0758 3.90296 2.15089 3.73488L2.80753 2.2651ZM9.78855 2.16076C9.641 2.27085 9.58137 2.49702 9.65647 2.6651L10.3131 4.13488C10.3882 4.30296 10.5696 4.34931 10.7171 4.23922C10.8647 4.12913 10.9243 3.90296 10.8492 3.73488L10.1926 2.2651C10.1175 2.09702 9.93611 2.05067 9.78855 2.16076ZM8.98439 2.76076C8.83684 2.87085 8.77721 3.09702 8.8523 3.2651L9.50894 4.73488C9.58403 4.90296 9.76541 4.94931 9.91296 4.83922C10.0605 4.72913 10.1201 4.50296 10.045 4.33488L9.38841 2.8651C9.31332 2.69702 9.13194 2.65067 8.98439 2.76076ZM2.15089 8.2651C2.0758 8.09701 2.13543 7.87084 2.28298 7.76076C2.43053 7.65067 2.61191 7.69701 2.68701 7.8651L3.34364 9.33487C3.41873 9.50296 3.35911 9.72913 3.21155 9.83922C3.064 9.94931 2.88262 9.90296 2.80753 9.73487L2.15089 8.2651ZM3.08715 7.16076C2.9396 7.27085 2.87997 7.49701 2.95506 7.6651L3.6117 9.13487C3.68679 9.30296 3.86817 9.34931 4.01572 9.23922C4.16327 9.12913 4.2229 8.90296 4.14781 8.73487L3.49117 7.2651C3.41608 7.09701 3.2347 7.05067 3.08715 7.16076ZM9.50894 7.26509C9.58403 7.09701 9.76541 7.05066 9.91296 7.16075C10.0605 7.27084 10.1201 7.49701 10.045 7.66509L9.38841 9.13487C9.31332 9.30296 9.13194 9.3493 8.98439 9.23921C8.83684 9.12912 8.77721 8.90296 8.8523 8.73487L9.50894 7.26509ZM10.7171 7.76075C10.5696 7.65066 10.3882 7.69701 10.3131 7.86509L9.65647 9.33487C9.58137 9.50296 9.641 9.72912 9.78855 9.83921C9.93611 9.9493 10.1175 9.90296 10.1926 9.73487L10.8492 8.26509C10.9243 8.09701 10.8647 7.87084 10.7171 7.76075ZM4.01572 2.76076C3.86817 2.65067 3.68679 2.69702 3.6117 2.8651L2.95506 4.33488C2.87997 4.50296 2.9396 4.72913 3.08715 4.83922C3.2347 4.94931 3.41608 4.90296 3.49117 4.73488L4.14781 3.2651C4.2229 3.09701 4.16327 2.87085 4.01572 2.76076Z" fill="#262626"/>
</g>
</svg>

<svg width="13" height="12" fill="none" xmlns="http://www.w3.org/2000/svg"><rect x=".25" y=".25" width="12.5" height="11.5" rx="1.75" fill="#fff" stroke="#F5F5F5" stroke-width=".5"/><mask id="a" maskUnits="userSpaceOnUse" x="0" y="0" width="13" height="12"><rect x=".25" y=".25" width="12.5" height="11.5" rx="1.75" fill="#fff" stroke="#fff" stroke-width=".5"/></mask><g mask="url(#a)"><path fill-rule="evenodd" clip-rule="evenodd" d="M6.5 8.8c1.197 0 2.167-1.254 2.167-2.8 0-1.546-.97-2.8-2.167-2.8-1.197 0-2.167 1.254-2.167 2.8 0 1.546.97 2.8 2.167 2.8z" fill="#E01B41"/><mask id="b" maskUnits="userSpaceOnUse" x="4" y="3" width="5" height="6"><path fill-rule="evenodd" clip-rule="evenodd" d="M6.5 8.8c1.197 0 2.167-1.254 2.167-2.8 0-1.546-.97-2.8-2.167-2.8-1.197 0-2.167 1.254-2.167 2.8 0 1.546.97 2.8 2.167 2.8z" fill="#fff"/></mask><g mask="url(#b)"><path fill-rule="evenodd" clip-rule="evenodd" d="M4.333 6.4c.62.75 1.548 1.2 2.167 0 .619-1.2 1.857-1.2 2.167 0 .31 1.2 0 2.4 0 2.4H4.333s-.619-3.15 0-2.4z" fill="#0E4B9C"/></g><path opacity=".75" fill-rule="evenodd" clip-rule="evenodd" d="M2.808 2.265c.075-.168.256-.214.404-.104.147.11.207.336.132.504l-.657 1.47c-.075.168-.256.214-.404.104a.437.437 0 01-.132-.504l.657-1.47zm6.98-.104a.437.437 0 00-.132.504l.657 1.47c.075.168.257.214.404.104a.437.437 0 00.132-.504l-.656-1.47c-.075-.168-.257-.214-.404-.104zm-.804.6a.437.437 0 00-.132.504l.657 1.47c.075.168.256.214.404.104a.437.437 0 00.132-.504l-.657-1.47c-.075-.168-.256-.214-.404-.104zM2.151 8.265a.437.437 0 01.132-.504c.148-.11.329-.064.404.104l.657 1.47a.437.437 0 01-.132.504c-.148.11-.33.064-.404-.104l-.657-1.47zm.936-1.104a.437.437 0 00-.132.504l.657 1.47c.075.168.256.214.404.104a.437.437 0 00.132-.504l-.657-1.47c-.075-.168-.256-.214-.404-.104zm6.422.104c.075-.168.256-.214.404-.104.147.11.207.336.132.504l-.657 1.47c-.075.168-.256.214-.404.104a.437.437 0 01-.132-.504l.657-1.47zm1.208.496c-.147-.11-.329-.064-.404.104l-.657 1.47a.437.437 0 00.133.504c.147.11.329.064.404-.104l.656-1.47a.437.437 0 00-.132-.504zm-6.701-5c-.148-.11-.33-.064-.404.104l-.657 1.47a.437.437 0 00.132.504c.148.11.33.064.404-.104l.657-1.47a.437.437 0 00-.132-.504z" fill="#262626"/></g></svg>
